src/components/header/img/main-logo-mobile.svg

<svg width="116" height="19" viewBox="0 0 116 19" fill="none" xmlns="http://www.w3.org/2000/svg">
<path d="M37.48 16H35.064V6.592H32.264C32.2 7.08267 32.1307 7.616 32.056 8.192C31.992 8.768 31.9173 9.35467 31.832 9.952C31.7573 10.5387 31.6773 11.0987 31.592 11.632C31.5067 12.1547 31.4213 12.6187 31.336 13.024C31.1973 13.6853 31.0107 14.2507 30.776 14.72C30.552 15.1893 30.2373 15.5467 29.832 15.792C29.4373 16.0373 28.92 16.16 28.28 16.16C27.864 16.16 27.48 16.1013 27.128 15.984V14C27.2667 14.0427 27.4 14.08 27.528 14.112C27.6667 14.144 27.816 14.16 27.976 14.16C28.2853 14.16 28.52 14 28.68 13.68C28.8507 13.3493 29.0213 12.736 29.192 11.84C29.256 11.4987 29.3467 10.9653 29.464 10.24C29.5813 9.51467 29.7093 8.66667 29.848 7.696C29.9973 6.71467 30.136 5.67467 30.264 4.576H37.48V16ZM40.3619 4.576H42.5379V10.096C42.5379 10.3627 42.5325 10.6613 42.5219 10.992C42.5112 11.3227 42.5005 11.648 42.4899 11.968C42.4792 12.2773 42.4685 12.5493 42.4579 12.784C42.4472 13.008 42.4365 13.1627 42.4259 13.248H42.4739L47.7539 4.576H50.6499V16H48.4899V10.512C48.4899 10.224 48.4952 9.90933 48.5059 9.568C48.5165 9.216 48.5272 8.88 48.5379 8.56C48.5592 8.24 48.5752 7.96267 48.5859 7.728C48.6072 7.48267 48.6232 7.32267 48.6339 7.248H48.5699L43.2739 16H40.3619V4.576ZM60.7498 4.576V6.576H55.9498V16H53.5338V4.576H60.7498ZM68.3695 16L67.5375 13.28H63.3775L62.5455 16H59.9375L63.9695 4.528H66.9295L70.9775 16H68.3695ZM66.9615 11.248L66.1295 8.592C66.0762 8.41067 66.0068 8.18133 65.9215 7.904C65.8362 7.62667 65.7508 7.344 65.6655 7.056C65.5802 6.768 65.5108 6.51733 65.4575 6.304C65.4042 6.51733 65.3295 6.784 65.2335 7.104C65.1482 7.41333 65.0628 7.712 64.9775 8C64.9028 8.27733 64.8442 8.47467 64.8015 8.592L63.9855 11.248H66.9615ZM77.0025 16V4.576H84.2185V6.576H79.4185V8.96H80.3785C81.4558 8.96 82.3358 9.10933 83.0185 9.408C83.7118 9.70667 84.2238 10.1173 84.5545 10.64C84.8852 11.1627 85.0505 11.76 85.0505 12.432C85.0505 13.5627 84.6718 14.4427 83.9145 15.072C83.1678 15.6907 81.9732 16 80.3305 16H77.0025ZM79.4185 14.016H80.2345C80.9705 14.016 81.5465 13.8987 81.9625 13.664C82.3892 13.4293 82.6025 13.0187 82.6025 12.432C82.6025 11.824 82.3732 11.424 81.9145 11.232C81.4558 11.04 80.8318 10.944 80.0425 10.944H79.4185V14.016ZM90.5976 7.088C91.771 7.088 92.667 7.344 93.2856 7.856C93.915 8.35733 94.2296 9.13067 94.2296 10.176V16H92.5656L92.1016 14.816H92.0376C91.6643 15.2853 91.2696 15.6267 90.8536 15.84C90.4376 16.0533 89.867 16.16 89.1416 16.16C88.363 16.16 87.7176 15.936 87.2056 15.488C86.6936 15.0293 86.4376 14.3307 86.4376 13.392C86.4376 12.464 86.763 11.7813 87.4136 11.344C88.0643 10.896 89.0403 10.6507 90.3416 10.608L91.8616 10.56V10.176C91.8616 9.71733 91.739 9.38133 91.4936 9.168C91.259 8.95467 90.9283 8.848 90.5016 8.848C90.075 8.848 89.659 8.912 89.2536 9.04C88.8483 9.15733 88.443 9.30667 88.0376 9.488L87.2536 7.872C87.723 7.62667 88.2403 7.43467 88.8056 7.296C89.3816 7.15733 89.979 7.088 90.5976 7.088ZM91.8616 11.952L90.9336 11.984C90.1656 12.0053 89.6323 12.144 89.3336 12.4C89.035 12.656 88.8856 12.992 88.8856 13.408C88.8856 13.7707 88.9923 14.032 89.2056 14.192C89.419 14.3413 89.6963 14.416 90.0376 14.416C90.5496 14.416 90.9816 14.2667 91.3336 13.968C91.6856 13.6587 91.8616 13.2267 91.8616 12.672V11.952ZM99.0539 7.264V10.624H102.382V7.264H104.766V16H102.382V12.4H99.0539V16H96.6699V7.264H99.0539ZM112.992 7.264H115.616L112.16 11.456L115.92 16H113.216L109.648 11.568V16H107.264V7.264H109.648V11.504L112.992 7.264Z" fill="#1F1E25"/>
<path d="M11.125 1H9.25L1 15.5122H3.4375L4.5625 13.439L11.125 1Z" fill="#2C36F2"/>
<path d="M2.125 18H17.875L11.125 5.14634L10 7.21951L13.375 13.439L14.5 15.5122H3.4375H1L2.125 18Z" fill="#2C36F2"/>
<path d="M14.5 15.5122L13.375 13.439H6.625H4.5625L3.4375 15.5122H14.5Z" fill="#2C36F2"/>
<path d="M17.875 18L19 15.5122L11.125 1L4.5625 13.439H6.625L10 7.21951L11.125 5.14634L17.875 18Z" fill="#2C36F2"/>
<path d="M10 7.21951L6.625 13.439H13.375L10 7.21951Z" fill="#2C36F2"/>
<path d="M17.875 18H2.125L1 15.5122M17.875 18L19 15.5122L11.125 1M17.875 18L11.125 5.14634L10 7.21951M11.125 1H9.25L1 15.5122M11.125 1L4.5625 13.439M1 15.5122H3.4375M10 7.21951L6.625 13.439M10 7.21951L13.375 13.439M6.625 13.439H13.375M6.625 13.439H4.5625M13.375 13.439L14.5 15.5122H3.4375M4.5625 13.439L3.4375 15.5122" stroke="#F6F7FF"/>
</svg>

<svg width="116" height="19" fill="none" xmlns="http://www.w3.org/2000/svg"><path d="M37.48 16h-2.416V6.592h-2.8l-.208 1.6a56.91 56.91 0 0 1-.224 1.76 53.175 53.175 0 0 1-.24 1.68c-.085.523-.17.987-.256 1.392-.139.661-.325 1.227-.56 1.696-.224.47-.539.827-.944 1.072-.395.245-.912.368-1.552.368-.416 0-.8-.059-1.152-.176V14c.139.043.272.08.4.112.139.032.288.048.448.048.31 0 .544-.16.704-.48.17-.33.341-.944.512-1.84.064-.341.155-.875.272-1.6.117-.725.245-1.573.384-2.544.15-.981.288-2.021.416-3.12h7.216V16Zm2.882-11.424h2.176v5.52c0 .267-.005.565-.016.896l-.032.976c-.01.31-.022.581-.032.816-.01.224-.021.379-.032.464h.048l5.28-8.672h2.896V16h-2.16v-5.488c0-.288.005-.603.016-.944.01-.352.021-.688.032-1.008.021-.32.037-.597.048-.832.021-.245.037-.405.048-.48h-.064L43.274 16h-2.912V4.576Zm20.388 0v2h-4.8V16h-2.416V4.576h7.216ZM68.37 16l-.833-2.72h-4.16L62.545 16h-2.608L63.97 4.528h2.96L70.979 16H68.37Zm-1.409-4.752-.832-2.656c-.053-.181-.122-.41-.208-.688a84.81 84.81 0 0 1-.256-.848 18.446 18.446 0 0 1-.208-.752c-.053.213-.127.48-.223.8-.086.31-.171.608-.256.896a8.192 8.192 0 0 1-.176.592l-.817 2.656h2.977ZM77.002 16V4.576h7.217v2h-4.8V8.96h.96c1.077 0 1.957.15 2.64.448.693.299 1.205.71 1.535 1.232.331.523.496 1.12.496 1.792 0 1.13-.378 2.01-1.135 2.64-.747.619-1.942.928-3.585.928h-3.328Zm2.416-1.984h.816c.737 0 1.313-.117 1.729-.352.426-.235.64-.645.64-1.232 0-.608-.23-1.008-.688-1.2-.46-.192-1.083-.288-1.873-.288h-.624v3.072Zm11.18-6.928c1.173 0 2.069.256 2.688.768.629.501.944 1.275.944 2.32V16h-1.664l-.464-1.184h-.064c-.374.47-.768.81-1.184 1.024-.416.213-.987.32-1.712.32-.779 0-1.424-.224-1.936-.672-.512-.459-.768-1.157-.768-2.096 0-.928.325-1.61.976-2.048.65-.448 1.626-.693 2.928-.736l1.52-.048v-.384c0-.459-.123-.795-.368-1.008-.235-.213-.566-.32-.992-.32a4.12 4.12 0 0 0-1.248.192c-.406.117-.811.267-1.216.448l-.784-1.616a6.87 6.87 0 0 1 1.552-.576 7.63 7.63 0 0 1 1.792-.208Zm1.264 4.864-.928.032c-.768.021-1.302.16-1.6.416-.299.256-.448.592-.448 1.008 0 .363.106.624.32.784.213.15.49.224.832.224.512 0 .944-.15 1.296-.448.352-.31.528-.741.528-1.296v-.72Zm7.192-4.688v3.36h3.328v-3.36h2.384V16h-2.384v-3.6h-3.328V16H96.67V7.264h2.384Zm13.938 0h2.624l-3.456 4.192L115.92 16h-2.704l-3.568-4.432V16h-2.384V7.264h2.384v4.24l3.344-4.24Z" fill="#1F1E25"/><path d="M11.125 1H9.25L1 15.512h2.438l1.124-2.073L11.125 1Z" fill="#2C36F2"/><path d="M2.125 18h15.75l-6.75-12.854L10 7.22l3.375 6.219 1.125 2.073H1L2.125 18Z" fill="#2C36F2"/><path d="m14.5 15.512-1.125-2.073H4.562l-1.125 2.073H14.5Z" fill="#2C36F2"/><path d="M17.875 18 19 15.512 11.125 1 4.562 13.439h2.063L10 7.219l1.125-2.073L17.875 18Z" fill="#2C36F2"/><path d="m10 7.22-3.375 6.219h6.75L10 7.219Z" fill="#2C36F2"/><path d="M17.875 18H2.125L1 15.512M17.875 18 19 15.512 11.125 1m6.75 17-6.75-12.854L10 7.22M11.125 1H9.25L1 15.512M11.125 1 4.562 13.439M1 15.512h2.438M10 7.22l-3.375 6.219M10 7.219l3.375 6.22m-6.75 0h6.75m-6.75 0H4.562m8.813 0 1.125 2.073H3.437m1.126-2.073-1.125 2.073" stroke="#F6F7FF"/></svg>
